client/Whatta/src/assets/icons/camera.svg

<svg width="24" height="24" viewBox="0 0 24 24" fill="none" xmlns="http://www.w3.org/2000/svg">
<path d="M4 7H20C20.5523 7 21 7.44772 21 8V17C21 17.5523 20.5523 18 20 18H4C3.44772 18 3 17.5523 3 17V8C3 7.44772 3.44772 7 4 7Z" stroke="#808080" stroke-width="2"/>
<path d="M9.63965 4H14.3604C14.837 4 15.2473 4.33639 15.3408 4.80371L15.7803 7H8.21973L8.65918 4.80371C8.75274 4.33639 9.16303 4 9.63965 4Z" stroke="#808080" stroke-width="2"/>
<circle cx="12" cy="12.5" r="2.5" stroke="#808080" stroke-width="2"/>
</svg>

<svg width="24" height="24" fill="none" xmlns="http://www.w3.org/2000/svg"><path d="M4 7h16a1 1 0 011 1v9a1 1 0 01-1 1H4a1 1 0 01-1-1V8a1 1 0 011-1zM9.64 4h4.72a1 1 0 01.98.804L15.78 7H8.22l.44-2.196A1 1 0 019.64 4z" stroke="currentColor" stroke-width="2"/><circle cx="12" cy="12.5" r="2.5" stroke="currentColor" stroke-width="2"/></svg>
